X:1
T:Duo en la majeur\.i
T:From "Nouvelle M\'ethode th\'eoretique et pratique"
C:Fran\ccois Devienne\.i
B:Devienne: Nouvelle M\'ethode (c. 1800)
Z:Transcribed by Frank Nordberg - http://www.musicaviva.com
F:http://abc.musicaviva.com/tunes/devienne-francois/devienne-nouvelle10.abc
V:1 Program 1 73 %Flute
V:2 Program 1 73 %Flute
M:C|
L:1/8
K:A
V:1
("^Allegro moderato"c>d)|e2e2-e(fga)|e2e2-e(e'd'c')|(d'c')(ba) (gf)(ed)|
(dc)(BA)z2(c'>b)|b2^d4a2|(gf)(ga) (bg)(ab)|
(c'e')(^d'c') (ba)(gf)|(f4e2)::(=d>c)|B2B4(e>d)|
(dc)c4(ag)|(ba)(d'c') (ba)(ga)|(c'4b) z (c>d)|e2e-e(fga)|
e(e'/d'/) (c'/b/)(a/g/) (a/g/)(f/e/) (d/c/)(B/A/)|.f(d'c'b)a2(Tb{a/b/})|(3(c'b).a (3(ga).b (3(ab).c' (3(bc').d'|
(3(c'b).a (3(ga).b (3(ab).c' (3(bc').d'|(3(c'b).c' (3(d'c').ba2 (Tg2{f/g/})|(b4a2):|
V:2
(A>B)|c2c2d4|(ce)(cA) (cc')(ba)|(ba)(gf) (ed)(cB)|
A2G2A2z2|F(ABA) (FA)(B^d)|(e^d)(ef) (ge)(fg)|
(ac')(ba) (gf)(e^d)|(^d4e2)::(B>A)|G2G4(c>B)|
(BA)A4(fe)|(dc)(BA) (dc)(BA)|(a4g) z (A>B)|c2c2d4|
c2c2c2c2|.d(fed)e2e2|(3(ed).c (3(Bc).d (3(cd).e (3(de).f|
(3(ed).c) (3(Bc).d (3(cd).e (3(de).f|(3(ed).e (3(fe).d c2 (TB2{A/B/})|(d4c2):|
W:
W:
W:  From Musica Viva - http://www.musicaviva.com
W:  the Internet center for free sheet music downloads.
